X: 24884
T: Magnus
R: waltz
M: 3/4
K: Gmajor
D2|:"G"B4 c>B|"D"A2 B2 c2|"Em"d2 B2 A2|("G"G2 F2) G2|"C"E3 E F>G|"G"D G3 B2|
"A7"B2 A2 ^G2|"D"A4 D2|"G"B4 c>B|"D"A2 B2 c2|"Em"d2 B2 A2|"G"G2 (F2 G2)|"C"E3 (E F>G)|
"G"D G3 c2|"D"B3 c A2|1 "G"G4 D2]:|2 "G"G4 E2|:D2 (d3 c)|"D" B2 A2 G2|"Em"A2 B2 c2|
"G"B2 A2 G2|"C" E2 e3 (c|"G"d2 B2) G2|"A"(E>F G)>(A B>c)|"D"A6|"G"A4 A2|
"D" A4 A2|"B7"B2 b2 a2|"Em"g6|"C"E3 (E F>G)|"G"D G3 c2|"D"B3 c A2|"G"G4||

